svg/down_round.svg

<svg xmlns="http://www.w3.org/2000/svg" viewBox="0 0 32 32" enable-background="new 0 0 32 32"><path d="M 16 3 C 8.8321429 3 3 8.8321429 3 16 C 3 23.167857 8.8321429 29 16 29 C 23.167857 29 29 23.167857 29 16 C 29 8.8321429 23.167857 3 16 3 z M 16 5 C 22.086977 5 27 9.9130231 27 16 C 27 22.086977 22.086977 27 16 27 C 9.9130231 27 5 22.086977 5 16 C 5 9.9130231 9.9130231 5 16 5 z M 15 9 L 15 19.28125 L 11 15.28125 L 9.59375 16.71875 L 15.28125 22.40625 L 16 23.125 L 16.71875 22.40625 L 22.40625 16.71875 L 21 15.28125 L 17 19.28125 L 17 9 L 15 9 z" color="#000" overflow="visible" enable-background="accumulate"/></svg>

<svg xmlns="http://www.w3.org/2000/svg" viewBox="0 0 32 32"><path d="M16 3C8.832 3 3 8.832 3 16s5.832 13 13 13 13-5.832 13-13S23.168 3 16 3zm0 2c6.087 0 11 4.913 11 11s-4.913 11-11 11S5 22.087 5 16 9.913 5 16 5zm-1 4v10.28l-4-4-1.406 1.44 5.687 5.686.72.72.72-.72 5.686-5.687L21 15.28l-4 4V9h-2z"/></svg>
